assets/images/clients/BAYER.svg

<svg width="300" height="120" viewBox="0 0 300 120" fill="none" xmlns="http://www.w3.org/2000/svg">
<mask id="mask0_3300_14598" style="mask-type:luminance" maskUnits="userSpaceOnUse" x="122" y="30" width="60" height="61">
<path d="M181.804 30.3672H122V90.1711H181.804V30.3672Z" fill="white"/>
</mask>
<g mask="url(#mask0_3300_14598)">
<path fill-rule="evenodd" clip-rule="evenodd" d="M151.902 30.3672C168.323 30.3672 181.804 43.8328 181.804 60.2692C181.804 76.7055 168.316 90.1712 151.902 90.1712C135.488 90.1712 122 76.6831 122 60.2692C122.027 52.3468 125.185 44.7565 130.787 39.1546C136.389 33.5527 143.98 30.3938 151.902 30.3672Z" fill="#949494"/>
<path fill-rule="evenodd" clip-rule="evenodd" d="M151.903 32.3613C145.384 32.3615 139.07 34.6439 134.058 38.8127C129.045 42.9814 125.651 48.7733 124.463 55.1835C123.274 61.5936 124.368 68.2175 127.553 73.9057C130.738 79.5939 135.815 83.9874 141.901 86.3241C147.987 88.6608 154.699 88.793 160.873 86.6979C167.046 84.6027 172.291 80.4125 175.698 74.8542C179.105 69.2958 180.459 62.7202 179.524 56.2682C178.589 49.8162 175.425 43.895 170.581 39.5322C165.441 34.9388 158.796 32.3877 151.903 32.3613Z" fill="white"/>
<path fill-rule="evenodd" clip-rule="evenodd" d="M151.402 58.8401L154.083 55.2852H156.886L152.546 60.824V64.2557H150.262V60.824L145.922 55.2852H148.725L151.402 58.8401Z" fill="#949494"/>
<path fill-rule="evenodd" clip-rule="evenodd" d="M144.214 55.2852L148.912 64.2557H146.213L145.342 62.4784H140.517L139.647 64.2557H136.951L141.649 55.2852H144.214Z" fill="#949494"/>
<path fill-rule="evenodd" clip-rule="evenodd" d="M126.985 55.2852H132.855C134.504 55.2852 136.43 55.5312 136.43 57.4556C136.43 58.4357 135.824 58.9458 134.934 59.293C135.513 59.3924 136.035 59.6842 136.405 60.1156C136.775 60.5471 136.969 61.0895 136.952 61.6442C136.952 63.5613 135.417 64.2557 133.614 64.2557H126.985V55.2852Z" fill="#949494"/>
<path fill-rule="evenodd" clip-rule="evenodd" d="M166.853 62.6413V64.2557H157.883V55.2852H166.604V56.8997H160.222V58.8619H166.391V60.4764H160.222V62.6413H166.853Z" fill="#949494"/>
<path fill-rule="evenodd" clip-rule="evenodd" d="M170.122 60.6791V64.2557H167.848V55.2852H173.932C175.709 55.2852 177.467 55.897 177.467 57.9604C177.467 59.5352 176.558 60.3751 175.112 60.6791L177.815 64.2557H175.108L172.727 60.6791H170.122Z" fill="#949494"/>
<path fill-rule="evenodd" clip-rule="evenodd" d="M146.917 35.3516H152.792C154.443 35.3516 156.371 35.5967 156.371 37.5149C156.371 38.474 155.764 38.9823 154.873 39.3465C155.457 39.4456 155.984 39.741 156.353 40.1776C156.723 40.6141 156.91 41.162 156.881 41.7189C156.881 43.6299 155.345 44.3222 153.541 44.3222H146.917V35.3516Z" fill="#949494"/>
<path fill-rule="evenodd" clip-rule="evenodd" d="M153.199 45.3184L157.883 54.2889H155.201L154.329 52.5122H149.495L148.6 54.2889H145.922L150.629 45.3184H153.199Z" fill="#949494"/>
<path fill-rule="evenodd" clip-rule="evenodd" d="M156.884 72.6089V74.2235H146.917V65.2529H156.644V66.8675H149.345V68.8296H156.427V70.4441H149.345V72.6089H156.884Z" fill="#949494"/>
<path fill-rule="evenodd" clip-rule="evenodd" d="M149.199 81.6194V85.1874H146.917V76.2168H153.018C154.787 76.2168 156.513 76.8272 156.513 78.8892C156.513 80.4565 155.628 81.3125 154.19 81.6194L156.884 85.1874H154.19L151.806 81.6194H149.199Z" fill="#949494"/>
<path fill-rule="evenodd" clip-rule="evenodd" d="M143.927 61.2656L142.44 58.2754L142.423 58.292L142.401 58.2754L140.937 61.2656H143.927Z" fill="white"/>
<path fill-rule="evenodd" clip-rule="evenodd" d="M128.976 59.2727H132.634C133.319 59.2727 133.91 59.049 133.955 58.2996C134.023 57.4794 133.339 57.2793 132.634 57.2793H128.976V59.2727Z" fill="white"/>
<path fill-rule="evenodd" clip-rule="evenodd" d="M128.976 62.2629H132.359C133.222 62.2629 133.959 62.0572 133.959 61.2401C133.959 60.3555 133.245 60.2695 132.359 60.2695H128.976V62.2629Z" fill="white"/>
<path fill-rule="evenodd" clip-rule="evenodd" d="M170.838 59.2727H174.374C175.098 59.2727 175.821 59.0867 175.821 58.276C175.821 57.4653 175.098 57.2793 174.374 57.2793H170.838V59.2727Z" fill="white"/>
<path fill-rule="evenodd" clip-rule="evenodd" d="M148.912 38.3411H152.555C153.237 38.3411 153.826 38.1187 153.894 37.3762C153.938 36.5264 153.257 36.3477 152.555 36.3477H148.912V38.3332V38.3411Z" fill="white"/>
<path fill-rule="evenodd" clip-rule="evenodd" d="M148.912 42.3274H152.283C153.165 42.3274 153.896 42.1169 153.896 41.2967C153.896 40.4207 153.154 40.334 152.283 40.334H148.912V42.3274Z" fill="white"/>
<path fill-rule="evenodd" clip-rule="evenodd" d="M152.897 50.3027L151.415 47.3125V47.3522L151.393 47.3125L149.907 50.3027H152.897Z" fill="white"/>
<path fill-rule="evenodd" clip-rule="evenodd" d="M149.907 80.2033H153.437C154.164 80.2033 154.891 80.0151 154.891 79.2184C154.891 78.4217 154.164 78.21 153.437 78.21H149.907V80.2V80.2033Z" fill="white"/>
</g>
</svg>

<svg width="300" height="120" viewBox="0 0 300 120" fill="none" xmlns="http://www.w3.org/2000/svg"><mask id="a" style="mask-type:luminance" maskUnits="userSpaceOnUse" x="122" y="30" width="60" height="61"><path d="M181.804 30.367H122v59.804h59.804V30.367Z" fill="#fff"/></mask><g mask="url(#a)" fill-rule="evenodd" clip-rule="evenodd"><path d="M151.902 30.367c16.421 0 29.902 13.466 29.902 29.902 0 16.437-13.488 29.902-29.902 29.902S122 76.683 122 60.27a30.004 30.004 0 0 1 29.902-29.902Z" fill="#949494"/><path d="M151.903 32.361a27.908 27.908 0 1 0 18.678 7.171 28.193 28.193 0 0 0-18.678-7.17Z" fill="#fff"/><path d="m151.402 58.84 2.681-3.555h2.803l-4.34 5.539v3.432h-2.284v-3.432l-4.34-5.539h2.803l2.677 3.555Zm-7.188-3.555 4.698 8.97h-2.699l-.871-1.777h-4.825l-.87 1.778h-2.696l4.698-8.97h2.565Zm-17.229 0h5.87c1.649 0 3.575.246 3.575 2.17 0 .98-.606 1.49-1.496 1.838a2.49 2.49 0 0 1 1.471.823c.37.431.564.974.547 1.528 0 1.917-1.535 2.612-3.338 2.612h-6.629v-8.97Zm39.868 7.356v1.615h-8.97v-8.97h8.721V56.9h-6.382v1.962h6.169v1.614h-6.169v2.165h6.631Zm3.269-1.961v3.576h-2.274v-8.97h6.084c1.777 0 3.535.611 3.535 2.674 0 1.575-.909 2.415-2.355 2.72l2.703 3.576h-2.707l-2.381-3.577h-2.605Zm-23.205-25.328h5.875c1.651 0 3.579.245 3.579 2.163 0 .959-.607 1.467-1.498 1.831.584.1 1.111.395 1.48.832a2.2 2.2 0 0 1 .528 1.54c0 1.912-1.536 2.604-3.34 2.604h-6.624v-8.97Zm6.282 9.966 4.684 8.97h-2.682l-.872-1.776h-4.834l-.895 1.777h-2.678l4.707-8.97h2.57Zm3.685 27.291v1.615h-9.967v-8.971h9.727v1.615h-7.299v1.962h7.082v1.614h-7.082v2.165h7.539Zm-7.685 9.011v3.567h-2.282v-8.97h6.101c1.769 0 3.495.61 3.495 2.672 0 1.568-.885 2.424-2.323 2.73l2.694 3.568h-2.694l-2.384-3.568h-2.607Z" fill="#949494"/><path d="m143.927 61.266-1.487-2.99-.017.016-.022-.017-1.464 2.99h2.99Zm-14.951-1.993h3.658c.685 0 1.276-.224 1.321-.973.068-.82-.616-1.02-1.321-1.02h-3.658v1.993Zm0 2.99h3.383c.863 0 1.6-.206 1.6-1.023 0-.885-.714-.97-1.6-.97h-3.383v1.993Zm41.862-2.99h3.536c.724 0 1.447-.186 1.447-.997 0-.81-.723-.997-1.447-.997h-3.536v1.994Zm-21.926-20.932h3.643c.682 0 1.271-.222 1.339-.965.044-.85-.637-1.028-1.339-1.028h-3.643v1.993Zm0 3.986h3.371c.882 0 1.613-.21 1.613-1.03 0-.876-.742-.963-1.613-.963h-3.371v1.993Zm3.985 7.976-1.482-2.99v.04l-.022-.04-1.486 2.99h2.99Zm-2.99 29.9h3.53c.727 0 1.454-.188 1.454-.985 0-.796-.727-1.008-1.454-1.008h-3.53v1.993Z" fill="#fff"/></g></svg>
